public/assets/img/products/safepods/key-advs/icon6.svg

<svg id="e0xBkEAbs141" xmlns="http://www.w3.org/2000/svg" xmlns:xlink="http://www.w3.org/1999/xlink" viewBox="0 0 52 52" shape-rendering="geometricPrecision" text-rendering="geometricPrecision" project-id="fc06a98ab4254841b10ccce856a21492" export-id="00082084c4ac4d5abb91ce1d37ca15c9" cached="false">
<style><![CDATA[
#e0xBkEAbs142_to {animation: e0xBkEAbs142_to__to 3000ms linear infinite alternate-reverse forwards}@keyframes e0xBkEAbs142_to__to { 0% {transform: translate(24.103363px,19.5217px)} 66.666667% {transform: translate(29.103363px,15.5217px)} 100% {transform: translate(29.103363px,15.5217px)}} #e0xBkEAbs143_to {animation: e0xBkEAbs143_to__to 3000ms linear infinite alternate-reverse forwards}@keyframes e0xBkEAbs143_to__to { 0% {transform: translate(33.798849px,32.158374px)} 66.666667% {transform: translate(38.798849px,28.158374px)} 100% {transform: translate(38.798849px,28.158374px)}} #e0xBkEAbs144_to {animation: e0xBkEAbs144_to__to 3000ms linear infinite alternate-reverse forwards}@keyframes e0xBkEAbs144_to__to { 0% {transform: translate(28.607143px,22.151387px)} 66.666667% {transform: translate(33.607143px,18.151387px)} 100% {transform: translate(33.607143px,18.151387px)}} #e0xBkEAbs146_to {animation: e0xBkEAbs146_to__to 3000ms linear infinite alternate-reverse forwards}@keyframes e0xBkEAbs146_to__to { 0% {transform: translate(38.371876px,45.0079px)} 66.666667% {transform: translate(43.371876px,41.0079px)} 100% {transform: translate(43.371876px,41.0079px)}} #e0xBkEAbs146 {animation: e0xBkEAbs146_c_o 3000ms linear infinite alternate-reverse forwards}@keyframes e0xBkEAbs146_c_o { 0% {opacity: 0} 10% {opacity: 0} 43.333333% {opacity: 1} 100% {opacity: 1}} #e0xBkEAbs147_to {animation: e0xBkEAbs147_to__to 3000ms linear infinite alternate-reverse forwards}@keyframes e0xBkEAbs147_to__to { 0% {transform: translate(24.380975px,38.843824px)} 66.666667% {transform: translate(29.380975px,34.843824px)} 100% {transform: translate(29.380975px,34.843824px)}} #e0xBkEAbs147 {animation: e0xBkEAbs147_c_o 3000ms linear infinite alternate-reverse forwards}@keyframes e0xBkEAbs147_c_o { 0% {opacity: 0} 10% {opacity: 0} 43.333333% {opacity: 1} 100% {opacity: 1}} #e0xBkEAbs148_to {animation: e0xBkEAbs148_to__to 3000ms linear infinite alternate-reverse forwards}@keyframes e0xBkEAbs148_to__to { 0% {transform: translate(6.7331px,14.801437px)} 66.666667% {transform: translate(11.7331px,10.801437px)} 100% {transform: translate(11.7331px,10.801437px)}} #e0xBkEAbs148 {animation: e0xBkEAbs148_c_o 3000ms linear infinite alternate-reverse forwards}@keyframes e0xBkEAbs148_c_o { 0% {opacity: 0} 10% {opacity: 0} 43.333333% {opacity: 1} 100% {opacity: 1}} #e0xBkEAbs149_to {animation: e0xBkEAbs149_to__to 3000ms linear infinite alternate-reverse forwards}@keyframes e0xBkEAbs149_to__to { 0% {transform: translate(6.90276px,45.783075px)} 66.666667% {transform: translate(11.90276px,41.783075px)} 100% {transform: translate(11.90276px,41.783075px)}} #e0xBkEAbs1410_to {animation: e0xBkEAbs1410_to__to 3000ms linear infinite alternate-reverse forwards}@keyframes e0xBkEAbs1410_to__to { 0% {transform: translate(21.789312px,44.272909px)} 66.666667% {transform: translate(26.789312px,40.272909px)} 100% {transform: translate(26.789312px,40.272909px)}} #e0xBkEAbs1411_to {animation: e0xBkEAbs1411_to__to 3000ms linear infinite alternate-reverse forwards}@keyframes e0xBkEAbs1411_to__to { 0% {transform: translate(30.615549px,28.2145px)} 66.666667% {transform: translate(35.615549px,24.2145px)} 100% {transform: translate(35.615549px,24.2145px)}} #e0xBkEAbs1412_to {animation: e0xBkEAbs1412_to__to 3000ms linear infinite alternate-reverse forwards}@keyframes e0xBkEAbs1412_to__to { 0% {transform: translate(16.212014px,27.882943px)} 66.666667% {transform: translate(21.212014px,23.882943px)} 100% {transform: translate(21.212014px,23.882943px)}} #e0xBkEAbs1413_to {animation: e0xBkEAbs1413_to__to 3000ms linear infinite alternate-reverse forwards}@keyframes e0xBkEAbs1413_to__to { 0% {transform: translate(18.458425px,28.573088px)} 66.666667% {transform: translate(23.458425px,24.573088px)} 100% {transform: translate(23.458425px,24.573088px)}}
]]></style>
<g id="e0xBkEAbs142_to" transform="translate(29.103363,15.5217)"><path d="M28.2135,19.6259c-.1061,0-.2133-.0404-.2941-.1223-.1618-.1628-.1618-.4256,0-.5883l2.8021-2.795c.4266-.4266.6621-.9957.6621-1.6043s-.2355-1.1776-.6621-1.6042c-.8876-.8855-2.3311-.8855-3.2176,0l-2.8021,2.796c-.1627.1628-.4256.1618-.5883,0-.1617-.1627-.1617-.4256,0-.5883l2.8021-2.796c1.211-1.208,3.1812-1.208,4.3922,0c.5843.5832.9067,1.3616.9067,2.1925s-.3214,1.6093-.9067,2.1926l-2.8021,2.795c-.0809.0809-.188.1213-.2942.1213l.002.001Z" transform="translate(-28.103363,-15.5217)" fill="#fff" stroke="#fff" stroke-width="0.8"/></g><g id="e0xBkEAbs143_to" transform="translate(38.798849,28.158374)"><path d="M36.0177,32.7003c-.7096,0-1.4182-.2689-1.959-.8087-.5216-.5206-.8087-1.215-.8087-1.956s.2871-1.4354.8087-1.956l3.5592-3.5542c1.0816-1.0786,2.8395-1.0786,3.9211,0c.5216.5206.8087,1.215.8087,1.956s-.2871,1.4354-.8087,1.956l-3.5622,3.5542c-.5398.5388-1.2494.8087-1.9591.8087Zm3.5603-8.2517c-.4974,0-.9947.1891-1.3728.5661L34.646,28.5689c-.3639.3639-.5651.8491-.5651,1.3677s.2012,1.0038.5651,1.3667c.7561.7551,1.9873.7551,2.7435,0l3.5622-3.5542c.3639-.3629.5651-.8491.5651-1.3667s-.2001-1.0038-.5651-1.3667c-.378-.378-.8754-.566-1.3727-.566l-.001-.0011Z" transform="translate(-37.798849,-28.158374)" fill="#fff" stroke="#fff" stroke-width="0.8"/></g><g id="e0xBkEAbs144_to" transform="translate(33.607143,18.151387)"><path d="M34.3732,21.0845c-.0353,0-.0737-.005-.1152-.0161-.1435-.0395-.2557-.1517-.2931-.2962-.0395-.1527-.0546-.2073.1122-.3963l-.0031-.003.0829-.0819c.094-.098.2244-.2264.4044-.4033.8491-.8764.837-2.3038-.0344-3.1751-.8865-.8855-2.33-.8845-3.2176,0l-1.402,1.399c-.1628.1617-.4256.1617-.5884,0s-.1617-.4256,0-.5883l1.4021-1.3991c1.211-1.2079,3.1822-1.2079,4.3922,0c1.1908,1.1918,1.207,3.1428.0364,4.3498l-.4893.4882-.002-.002c-.0819.0718-.1698.1243-.2851.1243Z" transform="translate(-32.607143,-18.151387)" fill="#fff" stroke="#fff" stroke-width="0.8"/></g><g><g id="e0xBkEAbs146_to" transform="translate(43.371876,41.0079)"><path id="e0xBkEAbs146" d="M34.1973,45.8589c.4.779.919,1.491,1.544,2.118c1.595,1.592,3.747,2.461,5.971,2.461.528,0,1.06-.049,1.589-.149.981-.184,1.524-.522,1.661-1.032.197-.737-.56-1.387-.966-1.737-.052-.044-.094-.079-.12-.105l-3.415-3.407c-1.027-1.026-1.09-2.68-.147-3.779c1.103-.942,2.761-.879,3.789.147l3.415,3.407c.026.025.061.067.106.119.35.406,1.002,1.161,1.74.963.51-.137.848-.679,1.033-1.657.522-2.755-.344-5.576-2.318-7.545-2.419-2.413-6.106-3.121-9.257-1.805l-1.4328-1.292951" transform="translate(-42.371876,-41.0079)" fill="none" stroke="#fff" stroke-width="2" stroke-linecap="round"/></g><g id="e0xBkEAbs147_to" transform="translate(29.380975,34.843824)"><path id="e0xBkEAbs147" d="M23.072976,26.643776l9.998469,10.9222c.122.122.072001-.156,0,0-1.002028.873282-1.781432,3.957745-.549668,5.6514" transform="translate(-28.688251,-34.2783)" fill="none" stroke="#fff" stroke-width="2" stroke-linecap="round"/></g><g id="e0xBkEAbs148_to" transform="translate(11.7331,10.801437)"><path id="e0xBkEAbs148" d="M15.7522,20.6019l-3.029-3.022c-3.15204,1.316-6.83804.608-9.25704-1.805-1.973-1.969-2.839001-4.79-2.317-7.54502.185-.978.523-1.52,1.033-1.657.737-.198,1.39.557,1.741.963.045.052.08.094.106.119l3.415,3.40702c1.028,1.026,2.68704,1.089,3.79004.147.942-1.099.88-2.75302-.148-3.77802l-3.41504-3.407c-.026-.026-.068-.061-.119-.105-.407-.35-1.164-1-.966-1.737.137-.51.68-.848,1.661-1.032c2.76204-.520995,5.58704.343,7.56004,2.312c2.419,2.414,3.13,6.093,1.81,9.23802l2.849,2.846" transform="translate(-10.7331,-10.801437)" fill="none" stroke="#fff" stroke-width="2"/></g></g><g id="e0xBkEAbs149_to" transform="translate(11.90276,41.783075)"><path d="M14.2411,51.0012c-.5398,0-1.0796-.2052-1.491-.6156L2.28163,39.9404c-.39727-.3962-.61561-.9259-.61561-1.489s.21834-1.0927.61561-1.489l3.79072-3.7826c.82183-.8198,2.16021-.8198,2.98204,0L12.8037,36.92c.1627.1617.1627.4256,0,.5883-.1618.1617-.4256.1627-.5884,0L8.46708,33.7681c-.49836-.4973-1.30907-.4973-1.80742,0L2.86894,37.5508c-.23958.2395-.372.559-.372.9006c0,.3417.13242.6611.372.9007L13.3374,49.7973c.4984.4974,1.3091.4974,1.8074,0l3.7907-3.7826c.2396-.2396.372-.559.372-.9007s-.1324-.6611-.372-.9007l-4.2638-4.2537c-.1627-.1617-.1627-.4255,0-.5883.1618-.1627.4246-.1637.5884,0l4.2627,4.2537c.3973.3963.6167.926.6167,1.489c0,.5631-.2184,1.0927-.6156,1.489l-3.7908,3.7826c-.4114.4104-.9512.6146-1.491.6156h-.001Z" transform="translate(-10.90276,-41.783075)" fill="#fff" stroke="#fff" stroke-width="0.8"/></g><g id="e0xBkEAbs1410_to" transform="translate(26.789312,40.272909)"><path d="M19.2299,44.3361c-.1061,0-.2133-.0404-.2941-.1223-.1618-.1627-.1618-.4256,0-.5883l5.0492-5.0381c1.7053-1.7013,2.328-1.6932,4.0414-1.4061.2396.0404.5044.0839.8036.1273.7946.1122.9052-.276762,2.1172-1.020762.1951-.1203.6641.632162.6641.632162s.658499-.0779.4634.0424c-.527701.3245-1.8729,1.3824-3.3619,1.1691-.3053-.0435-.5762-.089-.8218-.1294-1.4809-.2477-1.8327-.3063-3.3177,1.1746l-5.0492,5.0381c-.0809.0809-.188.1213-.2942.1213Z" transform="translate(-25.789312,-40.272909)" fill="#fff" stroke="#fff" stroke-width="0.8"/></g><g id="e0xBkEAbs1411_to" transform="translate(35.615549,24.2145)"><path d="M33.2206,28.7054c-.8319,0-1.6123-.3215-2.1966-.9068-.5853-.5822-.9078-1.3596-.9088-2.1895c0-.8309.3225-1.6103.9088-2.1956l2.791-2.7839c1.211-1.208,3.1812-1.208,4.3922,0c.5863.5833.9087,1.3627.9087,2.1936s-.3224,1.6103-.9087,2.1935l-2.79,2.784c-.5843.5842-1.3647.9047-2.1966.9047Zm2.79-8.1516c-.5833,0-1.1656.2214-1.6093.6641l-2.79,2.7839c-.4296.4276-.6651.9988-.6641,1.6063c0,.6065.2365,1.1756.6641,1.6012.4286.4286.9997.6641,1.6093.6641s1.1817-.2355,1.6083-.6631l2.791-2.7849c.4286-.4266.6641-.9957.6641-1.6042c0-.6086-.2355-1.1777-.6641-1.6033-.4438-.4427-1.0261-.6641-1.6093-.6641Z" transform="translate(-34.615549,-24.2145)" fill="#fff" stroke="#fff" stroke-width="0.8"/></g><g id="e0xBkEAbs1412_to" transform="translate(21.212014,23.882943)"><path d="M8.75921,33.8887c-.10614,0-.21329-.0405-.29416-.1223-.16173-.1628-.16173-.4256,0-.5884l3.14885-3.1427c2.6717-2.6636,3.7573-4.6945,3.63-6.792-.0961-1.6022.4822-3.1933,1.5466-4.2547l4.5772-4.5671c.7258-.7247,1.9064-.7258,2.6312-.003l5.9307,5.9156c1.2485,1.2342,2.234,2.2097,2.1451,3.073-.0233.2284-.2264.3972-.4559.371-.2285-.0233-.3942-.2275-.371-.4559.0485-.4671-1.0331-1.5376-1.9024-2.3968l-.3892-.3861-5.5436-5.5315c-.4003-.4003-1.0543-.3982-1.4566.0031l-4.5772,4.567c-.8845.8825-1.3849,2.2684-1.304,3.6159.1435,2.3593-1.0149,4.5822-3.8726,7.4308L9.05337,33.7674c-.08087.0808-.18802.1213-.29416.1213ZM28.8591,25.3459c-1.7821,0-3.6623-.9967-4.7065-2.0055-.0233-.0233-1.9287-1.9207-1.9843-1.9793-.1577-.1668-.1496-.4306.0171-.5873s.4287-.1496.5863.0151c.0839.087,1.9156,1.9116,1.9631,1.9591c1.3546,1.308,4.1547,2.4736,5.8741,1.2474.187-.1334.4468-.09.5803.097s.0899.4468-.0971.5803c-.6702.4781-1.4415.6742-2.2319.6742l-.0011-.001Z" transform="translate(-20.212014,-23.882943)" fill="#fff" stroke="#fff" stroke-width="0.8"/></g><g id="e0xBkEAbs1413_to" transform="translate(23.458425,24.573088)"><path d="M21.4506,28.4853c-.1061,0-.2133-.0404-.2941-.1223-.1618-.1627-.1618-.4256,0-.5883c1.1847-1.1827,1.8923-2.7233,1.8923-4.1223c0-.9239-.3012-1.7134-.8714-2.2815-.1627-.1617-.1627-.4256,0-.5883.1618-.1618.4256-.1628.5883,0c.7299.7278,1.116,1.7205,1.116,2.8708c0,1.6396-.7783,3.3561-2.1359,4.7106-.0809.0809-.189.1213-.2952.1213Z" transform="translate(-22.458425,-24.573088)" fill="#fff" stroke="#fff" stroke-width="0.8"/></g></svg>

<svg width="52" height="52" viewBox="0 0 52 52" fill="none" xmlns="http://www.w3.org/2000/svg">
<path d="M28.2135 19.6259C28.1074 19.6259 28.0002 19.5855 27.9194 19.5036C27.7576 19.3408 27.7576 19.078 27.9194 18.9153L30.7215 16.1203C31.1481 15.6937 31.3836 15.1246 31.3836 14.516C31.3836 13.9075 31.1481 13.3384 30.7215 12.9118C29.8339 12.0263 28.3904 12.0263 27.5039 12.9118L24.7018 15.7078C24.5391 15.8706 24.2762 15.8696 24.1135 15.7078C23.9518 15.5451 23.9518 15.2822 24.1135 15.1195L26.9156 12.3235C28.1266 11.1155 30.0968 11.1155 31.3078 12.3235C31.8921 12.9067 32.2145 13.6851 32.2145 14.516C32.2145 15.3469 31.8931 16.1253 31.3078 16.7086L28.5057 19.5036C28.4248 19.5845 28.3177 19.6249 28.2115 19.6249L28.2135 19.6259Z" fill="white" stroke="white" stroke-width="0.8"/>
<path d="M36.0177 32.7003C35.3081 32.7003 34.5995 32.4314 34.0587 31.8916C33.5371 31.371 33.25 30.6766 33.25 29.9356C33.25 29.1946 33.5371 28.5002 34.0587 27.9796L37.6179 24.4254C38.6995 23.3468 40.4574 23.3468 41.539 24.4254C42.0606 24.946 42.3477 25.6404 42.3477 26.3814C42.3477 27.1224 42.0606 27.8168 41.539 28.3374L37.9768 31.8916C37.437 32.4304 36.7274 32.7003 36.0177 32.7003ZM39.578 24.4486C39.0806 24.4486 38.5833 24.6377 38.2052 25.0147L34.646 28.5689C34.2821 28.9328 34.0809 29.418 34.0809 29.9366C34.0809 30.4552 34.2821 30.9404 34.646 31.3033C35.4021 32.0584 36.6333 32.0584 37.3895 31.3033L40.9517 27.7491C41.3156 27.3862 41.5168 26.9 41.5168 26.3824C41.5168 25.8649 41.3167 25.3786 40.9517 25.0157C40.5737 24.6377 40.0763 24.4497 39.579 24.4497L39.578 24.4486Z" fill="white" stroke="white" stroke-width="0.8"/>
<path d="M34.3732 21.0845C34.3379 21.0845 34.2995 21.0795 34.258 21.0684C34.1145 21.0289 34.0023 20.9167 33.9649 20.7722C33.9254 20.6195 33.9103 20.5649 34.0771 20.3759L34.074 20.3729L34.1569 20.291C34.2509 20.193 34.3813 20.0646 34.5613 19.8877C35.4104 19.0113 35.3983 17.5839 34.5269 16.7126C33.6404 15.8271 32.1969 15.8281 31.3093 16.7126L29.9073 18.1116C29.7445 18.2733 29.4817 18.2733 29.3189 18.1116C29.1562 17.9499 29.1572 17.686 29.3189 17.5233L30.721 16.1242C31.932 14.9163 33.9032 14.9163 35.1132 16.1242C36.304 17.316 36.3202 19.267 35.1496 20.474L34.6603 20.9622L34.6583 20.9602C34.5764 21.032 34.4885 21.0845 34.3732 21.0845Z" fill="white" stroke="white" stroke-width="0.8"/>
<path d="M42.1543 50.9747C39.9061 50.9747 37.7308 50.0963 36.1184 48.487C35.4866 47.8532 34.962 47.1335 34.5577 46.346C34.4525 46.1418 34.5334 45.8911 34.7376 45.787C34.9418 45.6819 35.1925 45.7628 35.2966 45.9669C35.6605 46.6776 36.1346 47.3276 36.7057 47.8997C38.5051 49.695 41.0868 50.4835 43.6059 50.0074C44.363 49.8648 44.6096 49.6626 44.6349 49.5656C44.6642 49.4564 44.5642 49.2098 43.9192 48.6558C43.8475 48.5942 43.7888 48.5426 43.7535 48.5072L40.3014 45.0632C38.9468 43.7117 38.873 41.5252 40.1326 40.0858C40.1447 40.0716 40.1578 40.0585 40.172 40.0463C41.6135 38.7909 43.803 38.8636 45.1565 40.2152L48.6086 43.6592C48.644 43.6945 48.6955 43.7532 48.7582 43.8249C49.3132 44.4668 49.5578 44.5699 49.672 44.5386C49.7691 44.5123 49.9723 44.2667 50.1148 43.5126C50.5909 40.9986 49.8014 38.4249 48.0021 36.6286C45.7327 34.3643 42.2412 33.7446 39.3117 35.0871C39.154 35.1598 38.968 35.1265 38.8447 35.0032L36.3348 32.4983C36.172 32.3365 36.172 32.0727 36.3348 31.9099C36.4965 31.7472 36.7593 31.7462 36.9231 31.9099L39.2329 34.2147C42.4181 32.8844 46.1451 33.6001 48.5904 36.0393C50.5858 38.0297 51.4613 40.8813 50.9336 43.6662C50.7466 44.6549 50.4049 45.2027 49.8894 45.3412C49.1434 45.5414 48.4843 44.7782 48.1305 44.3678C48.085 44.3152 48.0496 44.2727 48.0233 44.2475L44.5712 40.8035C43.5321 39.7663 41.8561 39.7027 40.7411 40.6549C39.7878 41.7658 39.8515 43.4378 40.8897 44.4749L44.3418 47.9189C44.3681 47.9452 44.4105 47.9806 44.4631 48.0251C44.8735 48.3789 45.6387 49.0359 45.4396 49.7809C45.3011 50.2965 44.7522 50.6381 43.7605 50.8241C43.2258 50.9252 42.688 50.9747 42.1543 50.9747ZM34.0482 43.2235C33.8268 43.2235 33.6428 43.0486 33.6327 42.8252C33.5792 41.5636 33.8056 40.2991 34.2878 39.1497L22.1908 27.077C22.0281 26.9153 22.0281 26.6514 22.1908 26.4887C22.3525 26.327 22.6164 26.3259 22.7791 26.4887L35.0772 38.7626C35.2006 38.8859 35.2339 39.0729 35.1611 39.2306C34.6537 40.3304 34.4121 41.5616 34.4637 42.7908C34.4738 43.0203 34.2948 43.2144 34.0654 43.2235C34.0593 43.2235 34.0532 43.2235 34.0482 43.2235ZM16.2065 20.936C16.1004 20.936 15.9942 20.8956 15.9124 20.8147L12.8505 17.7599C9.66424 19.0902 5.93821 18.3745 3.49294 15.9353C1.49851 13.9449 0.623111 11.0933 1.15078 8.30839C1.33779 7.31977 1.67946 6.77188 2.195 6.63339C2.94 6.43324 3.60009 7.19644 3.9549 7.60685C4.00039 7.65941 4.03577 7.70187 4.06205 7.72714L7.51414 11.1711C8.5533 12.2083 10.2303 12.272 11.3453 11.3197C12.2975 10.2088 12.2349 8.53684 11.1957 7.50071L7.7436 4.05671C7.71732 4.03043 7.67487 3.99505 7.62331 3.95057C7.21189 3.59677 6.44667 2.93971 6.64682 2.19471C6.78531 1.67917 7.33421 1.3375 8.32586 1.1515C11.1179 0.624844 13.9735 1.49823 15.968 3.48861C18.4132 5.92882 19.1319 9.64778 17.7976 12.8269L20.6776 15.7038C20.8403 15.8656 20.8403 16.1294 20.6776 16.2922C20.5148 16.4549 20.252 16.4549 20.0892 16.2922L17.0081 13.2151C16.8848 13.0918 16.8514 12.9048 16.9242 12.7471C18.2697 9.8267 17.649 6.34328 15.3796 4.07895C13.5783 2.27962 10.9976 1.49115 8.4785 1.96727C7.72035 2.1098 7.47472 2.31197 7.44843 2.40901C7.41912 2.51818 7.51919 2.76483 8.16412 3.31878C8.2369 3.38045 8.29452 3.432 8.3299 3.46738L11.782 6.91138C13.1365 8.2629 13.2103 10.4494 11.9508 11.8889C11.9387 11.903 11.9255 11.9161 11.9114 11.9283C10.4699 13.1838 8.27936 13.111 6.92582 11.7595L3.47373 8.31546C3.43835 8.28008 3.3868 8.22145 3.32514 8.14968C2.76917 7.50576 2.5215 7.40569 2.41031 7.435C2.31327 7.46129 2.11008 7.70693 1.96755 8.46103C1.49144 10.976 2.28092 13.5487 4.08025 15.345C6.34963 17.6093 9.84215 18.229 12.7706 16.8865C12.9283 16.8148 13.1153 16.8481 13.2376 16.9704L16.4997 20.2254C16.6624 20.3871 16.6624 20.651 16.4997 20.8137C16.4188 20.8946 16.3116 20.936 16.2055 20.936H16.2065Z" fill="white" stroke="white" stroke-width="0.8"/>
<path d="M14.2411 51.0015C13.7013 51.0015 13.1615 50.7963 12.7501 50.3859L2.28163 39.9407C1.88436 39.5444 1.66602 39.0147 1.66602 38.4517C1.66602 37.8886 1.88436 37.3589 2.28163 36.9627L6.07235 33.18C6.89418 32.3602 8.23256 32.3602 9.05439 33.18L12.8037 36.9202C12.9664 37.082 12.9664 37.3458 12.8037 37.5085C12.6419 37.6703 12.3781 37.6713 12.2153 37.5085L8.46708 33.7684C7.96872 33.271 7.15801 33.271 6.65966 33.7684L2.86894 37.551C2.62936 37.7906 2.49694 38.11 2.49694 38.4517C2.49694 38.7933 2.62936 39.1128 2.86894 39.3523L13.3374 49.7976C13.8358 50.2949 14.6465 50.2949 15.1448 49.7976L18.9355 46.0149C19.1751 45.7753 19.3075 45.4559 19.3075 45.1142C19.3075 44.7726 19.1751 44.4531 18.9355 44.2136L14.6717 39.9599C14.509 39.7981 14.509 39.5343 14.6717 39.3716C14.8335 39.2088 15.0963 39.2078 15.2601 39.3716L19.5228 43.6253C19.9201 44.0215 20.1395 44.5512 20.1395 45.1142C20.1395 45.6773 19.9211 46.207 19.5239 46.6032L15.7331 50.3859C15.3217 50.7963 14.7819 51.0005 14.2421 51.0015H14.2411Z" fill="white" stroke="white" stroke-width="0.8"/>
<path d="M19.2299 44.3361C19.1238 44.3361 19.0166 44.2957 18.9358 44.2138C18.774 44.0511 18.774 43.7882 18.9358 43.6255L23.985 38.5874C25.6903 36.8861 26.313 36.8942 28.0264 37.1813C28.266 37.2217 28.5308 37.2652 28.83 37.3086C29.6246 37.4208 30.9185 37.0155 32.1305 36.2715C32.3256 36.1512 32.5824 36.2118 32.7027 36.4079C32.8229 36.6041 32.7613 36.8598 32.5662 36.9801C32.0385 37.3046 30.2018 38.3448 28.7128 38.1315C28.4075 38.088 28.1366 38.0425 27.891 38.0021C26.4101 37.7544 26.0583 37.6958 24.5733 39.1767L19.5241 44.2148C19.4432 44.2957 19.3361 44.3361 19.2299 44.3361Z" fill="white" stroke="white" stroke-width="0.8"/>
<path d="M33.2206 28.7054C32.3887 28.7054 31.6083 28.3839 31.024 27.7986C30.4387 27.2164 30.1162 26.439 30.1152 25.6091C30.1152 24.7782 30.4377 23.9988 31.024 23.4135L33.815 20.6296C35.026 19.4216 36.9962 19.4216 38.2072 20.6296C38.7935 21.2129 39.1159 21.9923 39.1159 22.8232C39.1159 23.6541 38.7935 24.4335 38.2072 25.0167L35.4172 27.8007C34.8329 28.3849 34.0525 28.7054 33.2206 28.7054ZM36.0106 20.5538C35.4273 20.5538 34.845 20.7752 34.4013 21.2179L31.6113 24.0018C31.1817 24.4294 30.9462 25.0006 30.9472 25.6081C30.9472 26.2146 31.1837 26.7837 31.6113 27.2093C32.0399 27.6379 32.611 27.8734 33.2206 27.8734C33.8301 27.8734 34.4023 27.6379 34.8289 27.2103L37.6199 24.4254C38.0485 23.9988 38.284 23.4297 38.284 22.8212C38.284 22.2126 38.0485 21.6435 37.6199 21.2179C37.1761 20.7752 36.5938 20.5538 36.0106 20.5538Z" fill="white" stroke="white" stroke-width="0.8"/>
<path d="M8.75921 33.8887C8.65307 33.8887 8.54592 33.8482 8.46505 33.7664C8.30332 33.6036 8.30332 33.3408 8.46505 33.178L11.6139 30.0353C14.2856 27.3717 15.3712 25.3408 15.2439 23.2433C15.1478 21.6411 15.7261 20.05 16.7905 18.9886L21.3677 14.4215C22.0935 13.6968 23.2741 13.6957 23.9989 14.4185L29.9296 20.3341C31.1781 21.5683 32.1636 22.5438 32.0747 23.4071C32.0514 23.6355 31.8483 23.8043 31.6188 23.7781C31.3903 23.7548 31.2246 23.5506 31.2478 23.3222C31.2963 22.8551 30.2147 21.7846 29.3454 20.9254L28.9562 20.5393L23.4126 15.0078C23.0123 14.6075 22.3583 14.6096 21.956 15.0109L17.3788 19.5779C16.4943 20.4604 15.9939 21.8463 16.0748 23.1938C16.2183 25.5531 15.0599 27.776 12.2022 30.6246L9.05337 33.7674C8.9725 33.8482 8.86535 33.8887 8.75921 33.8887ZM28.8591 25.3459C27.077 25.3459 25.1968 24.3492 24.1526 23.3404C24.1293 23.3171 22.2239 21.4197 22.1683 21.3611C22.0106 21.1943 22.0187 20.9305 22.1854 20.7738C22.3522 20.6171 22.6141 20.6242 22.7717 20.7889C22.8556 20.8759 24.6873 22.7005 24.7348 22.748C26.0894 24.056 28.8895 25.2216 30.6089 23.9954C30.7959 23.862 31.0557 23.9054 31.1892 24.0924C31.3226 24.2794 31.2791 24.5392 31.0921 24.6727C30.4219 25.1508 29.6506 25.3469 28.8602 25.3469L28.8591 25.3459Z" fill="white" stroke="white" stroke-width="0.8"/>
<path d="M21.4506 28.4853C21.3445 28.4853 21.2373 28.4449 21.1565 28.363C20.9947 28.2003 20.9947 27.9374 21.1565 27.7747C22.3412 26.592 23.0488 25.0514 23.0488 23.6524C23.0488 22.7285 22.7476 21.939 22.1774 21.3709C22.0147 21.2092 22.0147 20.9453 22.1774 20.7826C22.3392 20.6208 22.603 20.6198 22.7657 20.7826C23.4956 21.5104 23.8817 22.5031 23.8817 23.6534C23.8817 25.293 23.1034 27.0095 21.7458 28.364C21.6649 28.4449 21.5568 28.4853 21.4506 28.4853Z" fill="white" stroke="white" stroke-width="0.8"/>
</svg>
